docs/images/icons/grid.svg

<svg width="635" height="665" fill="none" xmlns="http://www.w3.org/2000/svg"><path d="M31.75 0v665M63.5 0v665M95.25 0v665M127 0v665M158.75 0v665M190.5 0v665M222.25 0v665M254 0v665M285.75 0v665M317.5 0v665M349.25 0v665M381 0v665M412.75 0v665M444.5 0v665M476.25 0v665M508 0v665M539.75 0v665M571.5 0v665M603.25 0v665M0 31.667h635M0 63.333h635M0 95h635M0 126.667h635M0 158.333h635M0 190h635M0 221.667h635M0 253.333h635M0 285h635M0 316.667h635M0 348.333h635M0 380h635M0 411.667h635M0 443.333h635M0 475h635M0 506.667h635M0 538.333h635M0 570h635M0 601.667h635M0 633.333h635" stroke="url(#a)" stroke-opacity=".2"/><defs><radialGradient id="a" cx="0" cy="0" r="1" gradientUnits="userSpaceOnUse" gradientTransform="scale(317.5 332.5) rotate(90 0 1)"><stop stop-color="#CED2DA"/><stop offset="1" stop-color="#CED2DA" stop-opacity="0"/></radialGradient></defs></svg>

<svg width="635" height="665" viewBox="0 0 635 665" fill="none" xmlns="http://www.w3.org/2000/svg">
<path d="M31.75 0V665M63.5 0V665M95.25 0V665M127 0V665M158.75 0V665M190.5 0V665M222.25 0V665M254 0V665M285.75 0V665M317.5 0V665M349.25 0V665M381 0V665M412.75 0V665M444.5 0V665M476.25 0V665M508 0V665M539.75 0V665M571.5 0V665M603.25 0V665M0 31.6667H635M0 63.3333H635M0 95H635M0 126.667H635M0 158.333H635M0 190H635M0 221.667H635M0 253.333H635M0 285H635M0 316.667H635M0 348.333H635M0 380H635M0 411.667H635M0 443.333H635M0 475H635M0 506.667H635M0 538.333H635M0 570H635M0 601.667H635M0 633.333H635" stroke="url(#paint0_radial_1733_867)" stroke-opacity="0.2"/>
<defs>
<radialGradient id="paint0_radial_1733_867" cx="0" cy="0" r="1" gradientUnits="userSpaceOnUse" gradientTransform="translate(317.5 332.5) rotate(90) scale(332.5 317.5)">
<stop stop-color="#CED2DA"/>
<stop offset="1" stop-color="#CED2DA" stop-opacity="0"/>
</radialGradient>
</defs>
</svg>
